X:624
T: ES IST ERSTANDEN JESUS CHRIST
N: E1976A
O: Europa, Mitteleuropa, Deutschland
R: geistlich, Fest - Lied, Ostern
M: 3/4
L: 1/4
K: F
F | F2A | c2d | cAc | c2
f | ede | f2c | c2B | A2
F | GAB | AGF | EDE | F3 | z2

